X: 316
M: C|
L: 1/8
K: F
[|\
[|\
cdef g2c2 | g2a2 b4 | a2gf e2f2 | ^c2d2 e2A2 |\
a2c2 defg | e4 f4 |]

